build/img/350-tablet.svg

<svg width="85" height="43" viewBox="0 0 85 43" fill="none" xmlns="http://www.w3.org/2000/svg">
<path d="M8.82715 17.7295H12.707C14.1797 17.7295 15.2559 17.2197 15.9355 16.2002C16.6341 15.1618 16.9834 13.7835 16.9834 12.0654C16.9834 10.4229 16.6247 9.14844 15.9072 8.24219C15.2087 7.31706 14.2646 6.85449 13.0752 6.85449C11.9613 6.85449 11.0456 7.28874 10.3281 8.15723C9.62956 9.02572 9.28027 10.1208 9.28027 11.4424H1.26562C1.26562 9.29004 1.75651 7.36426 2.73828 5.66504C3.73893 3.94694 5.12663 2.60645 6.90137 1.64355C8.69499 0.680664 10.6774 0.199219 12.8486 0.199219C16.6436 0.199219 19.6172 1.24707 21.7695 3.34277C23.9219 5.43848 24.998 8.30827 24.998 11.9521C24.998 13.8213 24.5072 15.5583 23.5254 17.1631C22.5625 18.749 21.2881 19.9668 19.7021 20.8164C21.6468 21.6471 23.0911 22.8932 24.0352 24.5547C24.998 26.2161 25.4795 28.1797 25.4795 30.4453C25.4795 34.1081 24.3089 37.0439 21.9678 39.2529C19.6455 41.4619 16.5869 42.5664 12.792 42.5664C9.26139 42.5664 6.3916 41.4808 4.18262 39.3096C1.99251 37.1195 0.897461 34.2497 0.897461 30.7002H8.91211C8.91211 32.1729 9.29915 33.4095 10.0732 34.4102C10.8473 35.4108 11.8291 35.9111 13.0186 35.9111C14.3968 35.9111 15.4824 35.4014 16.2754 34.3818C17.0872 33.3623 17.4932 32.0029 17.4932 30.3037C17.4932 26.2445 15.9167 24.2054 12.7637 24.1865H8.82715V17.7295ZM31.8516 21.7227L33.8906 0.765625H53.8564V7.61914H40.4609L39.7246 16.4551C41.2728 15.4167 42.8682 14.8975 44.5107 14.8975C47.9092 14.8975 50.5241 16.1058 52.3555 18.5225C54.2057 20.9391 55.1309 24.3564 55.1309 28.7744C55.1309 32.9092 54.0358 36.2415 51.8457 38.7715C49.6556 41.3014 46.7292 42.5664 43.0664 42.5664C40.8952 42.5664 38.8844 42.0566 37.0342 41.0371C35.1839 39.9987 33.7207 38.5638 32.6445 36.7324C31.5872 34.901 31.0492 32.8242 31.0303 30.502H38.96C39.0921 32.2201 39.5169 33.5511 40.2344 34.4951C40.9518 35.4391 41.877 35.9111 43.0098 35.9111C44.3314 35.9111 45.3509 35.2786 46.0684 34.0137C46.7858 32.7298 47.1445 30.8229 47.1445 28.293C47.1445 25.9141 46.7103 24.1204 45.8418 22.9121C44.9922 21.7038 43.7933 21.0996 42.2451 21.0996C40.7347 21.0996 39.5641 21.6188 38.7334 22.6572L38.2236 23.3652L31.8516 21.7227ZM84.3291 24.9512C84.3291 30.653 83.2907 35.0143 81.2139 38.0352C79.1559 41.056 76.2106 42.5664 72.3779 42.5664C68.583 42.5664 65.6471 41.1032 63.5703 38.1768C61.5124 35.2314 60.4456 31.0212 60.3701 25.5459V17.7578C60.3701 12.0749 61.3991 7.73242 63.457 4.73047C65.515 1.70964 68.4697 0.199219 72.3213 0.199219C76.1729 0.199219 79.1276 1.69076 81.1855 4.67383C83.2435 7.6569 84.2913 11.9144 84.3291 17.4463V24.9512ZM76.2861 16.5967C76.2861 13.3493 75.9652 10.9137 75.3232 9.29004C74.6813 7.66634 73.6807 6.85449 72.3213 6.85449C69.7725 6.85449 68.4508 9.82812 68.3564 15.7754V26.0557C68.3564 29.3786 68.6774 31.8519 69.3193 33.4756C69.9801 35.0993 70.9997 35.9111 72.3779 35.9111C73.6807 35.9111 74.6436 35.1559 75.2666 33.6455C75.9085 32.1162 76.2484 29.7845 76.2861 26.6504V16.5967Z" fill="url(#paint0_linear)"/>
<defs>
<linearGradient id="paint0_linear" x1="-1" y1="2" x2="18.0219" y2="57.1711" gradientUnits="userSpaceOnUse">
<stop stop-color="#D10A42"/>
<stop offset="1" stop-color="#0041CA"/>
</linearGradient>
</defs>
</svg>

<svg width="85" height="43" fill="none" xmlns="http://www.w3.org/2000/svg"><path d="M8.827 17.73h3.88c1.473 0 2.549-.51 3.228-1.53.7-1.038 1.048-2.416 1.048-4.135 0-1.642-.358-2.917-1.076-3.823-.698-.925-1.642-1.388-2.832-1.388-1.114 0-2.03.435-2.747 1.303-.698.869-1.048 1.964-1.048 3.285H1.266c0-2.152.49-4.078 1.472-5.777 1-1.718 2.389-3.059 4.163-4.021C8.695.68 10.677.199 12.85.199c3.795 0 6.768 1.048 8.92 3.144 2.153 2.095 3.229 4.965 3.229 8.61 0 1.868-.49 3.605-1.473 5.21-.962 1.586-2.237 2.804-3.823 3.653 1.945.831 3.39 2.077 4.333 3.739.963 1.661 1.445 3.625 1.445 5.89 0 3.663-1.171 6.599-3.512 8.808-2.323 2.209-5.381 3.313-9.176 3.313-3.53 0-6.4-1.085-8.61-3.256C1.993 37.12.898 34.25.898 30.7h8.015c0 1.473.387 2.71 1.161 3.71s1.756 1.501 2.946 1.501c1.378 0 2.463-.51 3.256-1.53.812-1.019 1.218-2.378 1.218-4.077 0-4.06-1.576-6.099-4.73-6.117H8.828V17.73zm23.025 3.993L33.89.766h19.965v6.853H40.461l-.736 8.836c1.548-1.038 3.143-1.557 4.786-1.557 3.398 0 6.013 1.208 7.844 3.625 1.85 2.416 2.776 5.833 2.776 10.251 0 4.135-1.095 7.468-3.285 9.998-2.19 2.53-5.117 3.794-8.78 3.794-2.17 0-4.182-.51-6.032-1.529a11.578 11.578 0 01-4.39-4.305c-1.057-1.831-1.595-3.908-1.614-6.23h7.93c.132 1.718.557 3.05 1.274 3.993.718.944 1.643 1.416 2.776 1.416 1.321 0 2.34-.632 3.058-1.897.718-1.284 1.077-3.191 1.077-5.721 0-2.379-.435-4.173-1.303-5.38-.85-1.21-2.049-1.813-3.597-1.813-1.51 0-2.68.519-3.512 1.557l-.51.708-6.371-1.642zm52.477 3.228c0 5.702-1.038 10.063-3.115 13.084-2.058 3.021-5.003 4.531-8.836 4.531-3.795 0-6.73-1.463-8.808-4.39-2.058-2.945-3.124-7.155-3.2-12.63v-7.788c0-5.683 1.03-10.026 3.087-13.028C65.515 1.71 68.47.2 72.321.2c3.852 0 6.807 1.49 8.865 4.474 2.057 2.983 3.105 7.24 3.143 12.772v7.505zm-8.043-8.354c0-3.248-.32-5.683-.963-7.307-.642-1.624-1.642-2.436-3.002-2.436-2.549 0-3.87 2.974-3.965 8.921v10.28c0 3.324.321 5.797.963 7.42.661 1.624 1.68 2.436 3.059 2.436 1.303 0 2.266-.755 2.889-2.266.642-1.529.981-3.86 1.02-6.995V16.597z" fill="url(#paint0_linear)"/><defs><linearGradient id="paint0_linear" x1="-1" y1="2" x2="18.022" y2="57.171" gradientUnits="userSpaceOnUse"><stop stop-color="#D10A42"/><stop offset="1" stop-color="#0041CA"/></linearGradient></defs></svg>
